svgs/maxnote.svg

<svg width="192" height="192" viewBox="0 0 192 192" fill="none" xmlns="http://www.w3.org/2000/svg">
<path d="M22 89.5357V31L45.9464 68.25L69.2276 31V89.5357" stroke="black" stroke-width="12" stroke-linecap="round" stroke-linejoin="round"/>
<path d="M170 47L140 90M170 90L140.667 47" stroke="black" stroke-width="12" stroke-linecap="round" stroke-linejoin="round"/>
<path d="M121 53V89.91" stroke="black" stroke-width="12" stroke-linecap="round" stroke-linejoin="round"/>
<path d="M91.393 55.0801C97.8872 47.8066 108.416 47.8066 114.911 55.0801C121.405 62.3537 121.405 74.1464 114.911 81.4199C108.416 88.6934 97.8872 88.6934 91.393 81.4199C84.8988 74.1464 84.8988 62.3537 91.393 55.0801Z" stroke="black" stroke-width="10" stroke-linecap="round" stroke-linejoin="round"/>
<path d="M22 160.393V115L51.2186 160.393V115" stroke="black" stroke-width="12" stroke-linecap="round" stroke-linejoin="round"/>
<path d="M71.5193 152.615C66.0178 147.113 66.0178 138.193 71.5193 132.692C77.0209 127.19 85.9406 127.19 91.4421 132.692C96.9437 138.193 96.9437 147.113 91.4421 152.615C85.9406 158.116 77.0209 158.116 71.5193 152.615Z" stroke="black" stroke-width="12" stroke-linecap="round" stroke-linejoin="round"/>
<path d="M117.482 118.131V129.609M117.482 129.609V147.741C117.482 152.711 121.512 156.741 126.482 156.741H128.439M117.482 129.609H127.917H107.047" stroke="black" stroke-width="12" stroke-linecap="round" stroke-linejoin="round"/>
<path d="M139.396 141.088C139.396 141.088 139.396 124.392 154.9 124.392C171 124.392 171 141.088 171 141.088H139.396ZM139.396 141.088C139.396 141.088 139.396 157.784 154.9 157.784C163.844 157.784 166.826 154.207 169.211 151.821" stroke="black" stroke-width="10" stroke-linecap="round" stroke-linejoin="round"/>
</svg>

<svg width="192" height="192" viewBox="0 0 192 192" fill="none" xmlns="http://www.w3.org/2000/svg"><path d="M22 89.536V31l23.946 37.25L69.228 31v58.536M170 47l-30 43m30 0-29.333-43M121 53v36.91" stroke="#000" stroke-width="12" stroke-linecap="round" stroke-linejoin="round"/><path d="M91.393 55.08c6.494-7.273 17.023-7.273 23.518 0 6.494 7.274 6.494 19.066 0 26.34-6.495 7.273-17.024 7.273-23.518 0-6.494-7.274-6.494-19.066 0-26.34Z" stroke="#000" stroke-width="10" stroke-linecap="round" stroke-linejoin="round"/><path d="M22 160.393V115l29.219 45.393V115M71.52 152.615c-5.502-5.502-5.502-14.422 0-19.923 5.5-5.502 14.42-5.502 19.922 0 5.502 5.501 5.502 14.421 0 19.923-5.501 5.501-14.421 5.501-19.923 0ZM117.482 118.131v11.478m0 0v18.132a9 9 0 0 0 9 9h1.957m-10.957-27.132h10.435-20.87" stroke="#000" stroke-width="12" stroke-linecap="round" stroke-linejoin="round"/><path d="M139.396 141.088s0-16.696 15.504-16.696c16.1 0 16.1 16.696 16.1 16.696h-31.604Zm0 0s0 16.696 15.504 16.696c8.944 0 11.926-3.577 14.311-5.963" stroke="#000" stroke-width="10" stroke-linecap="round" stroke-linejoin="round"/></svg>
